icons/jupyter/jupyter-original-wordmark.svg

<?xml version="1.0" encoding="UTF-8"?>
<svg xmlns="http://www.w3.org/2000/svg" xmlns:xlink="http://www.w3.org/1999/xlink" width="128px" height="128px" viewBox="0 0 128 128" version="1.1">
<g id="surface1">
<path style=" stroke:none;fill-rule:nonzero;fill:rgb(30.588235%,30.588235%,30.588235%);fill-opacity:1;" d="M 6.648438 67.351562 C 6.648438 71.261719 6.285156 72.535156 5.351562 73.472656 C 4.316406 74.28125 2.96875 74.726562 1.570312 74.726562 L 1.933594 76.960938 C 4.097656 76.984375 6.199219 76.324219 7.839844 75.105469 C 8.722656 74.175781 9.378906 73.105469 9.769531 71.953125 C 10.160156 70.800781 10.277344 69.59375 10.117188 68.402344 L 10.117188 53.609375 L 6.648438 53.609375 Z M 6.648438 67.351562 "/>
<path style=" stroke:none;fill-rule:nonzero;fill:rgb(30.588235%,30.588235%,30.588235%);fill-opacity:1;" d="M 32.53125 65.589844 C 32.53125 67.265625 32.53125 68.761719 32.683594 70.058594 L 29.601562 70.058594 L 29.394531 67.398438 C 28.75 68.339844 27.828125 69.117188 26.722656 69.648438 C 25.617188 70.183594 24.367188 70.457031 23.101562 70.4375 C 20.097656 70.4375 16.523438 69.03125 16.523438 63.289062 L 16.523438 53.746094 L 19.996094 53.746094 L 19.996094 62.683594 C 19.996094 65.789062 21.109375 67.867188 24.242188 67.867188 C 24.886719 67.875 25.527344 67.769531 26.125 67.558594 C 26.71875 67.347656 27.261719 67.039062 27.71875 66.644531 C 28.175781 66.25 28.535156 65.78125 28.777344 65.269531 C 29.023438 64.753906 29.144531 64.203125 29.136719 63.644531 L 29.136719 53.632812 L 32.605469 53.632812 L 32.605469 65.5 Z M 32.53125 65.589844 "/>
<path style=" stroke:none;fill-rule:nonzero;fill:rgb(30.588235%,30.588235%,30.588235%);fill-opacity:1;" d="M 39.109375 59.0625 C 39.109375 56.984375 39.109375 55.285156 38.953125 53.746094 L 42.0625 53.746094 L 42.214844 56.539062 C 42.910156 55.527344 43.90625 54.699219 45.101562 54.140625 C 46.296875 53.582031 47.644531 53.3125 49 53.363281 C 53.613281 53.363281 57.082031 56.695312 57.082031 61.652344 C 57.082031 67.507812 52.914062 70.414062 48.40625 70.414062 C 47.253906 70.457031 46.105469 70.246094 45.074219 69.792969 C 44.046875 69.34375 43.167969 68.671875 42.527344 67.84375 L 42.527344 76.78125 L 39.109375 76.78125 Z M 42.527344 63.417969 C 42.535156 63.824219 42.589844 64.230469 42.683594 64.625 C 42.976562 65.617188 43.644531 66.496094 44.582031 67.125 C 45.519531 67.753906 46.675781 68.089844 47.863281 68.089844 C 51.515625 68.089844 53.664062 65.519531 53.664062 61.789062 C 53.664062 58.527344 51.644531 55.734375 47.992188 55.734375 C 46.546875 55.835938 45.195312 56.386719 44.1875 57.289062 C 43.183594 58.191406 42.589844 59.375 42.527344 60.625 Z M 42.527344 63.417969 "/>
<path style=" stroke:none;fill-rule:nonzero;fill:rgb(30.588235%,30.588235%,30.588235%);fill-opacity:1;" d="M 63.265625 53.730469 L 67.4375 63.359375 C 67.875 64.433594 68.34375 65.726562 68.652344 66.6875 C 69.015625 65.707031 69.402344 64.453125 69.871094 63.292969 L 73.652344 53.730469 L 77.304688 53.730469 L 72.125 65.347656 C 69.535156 70.933594 67.953125 73.816406 65.570312 75.558594 C 64.371094 76.507812 62.90625 77.167969 61.324219 77.480469 L 60.46875 74.980469 C 61.578125 74.664062 62.605469 74.171875 63.5 73.527344 C 64.761719 72.636719 65.765625 71.503906 66.425781 70.21875 C 66.566406 69.996094 66.664062 69.753906 66.710938 69.503906 C 66.679688 69.234375 66.601562 68.972656 66.476562 68.722656 L 59.433594 53.683594 L 63.214844 53.683594 Z M 63.265625 53.730469 "/>
<path style=" stroke:none;fill-rule:nonzero;fill:rgb(30.588235%,30.588235%,30.588235%);fill-opacity:1;" d="M 86.515625 49.042969 L 86.515625 53.734375 L 91.488281 53.734375 L 91.488281 55.96875 L 86.515625 55.96875 L 86.515625 64.773438 C 86.515625 66.785156 87.191406 67.945312 89.105469 67.945312 C 89.789062 67.953125 90.464844 67.886719 91.125 67.742188 L 91.28125 69.980469 C 90.292969 70.273438 89.246094 70.410156 88.199219 70.378906 C 87.507812 70.417969 86.8125 70.324219 86.164062 70.109375 C 85.515625 69.894531 84.929688 69.558594 84.445312 69.128906 C 83.390625 67.910156 82.910156 66.394531 83.097656 64.882812 L 83.097656 55.945312 L 80.144531 55.945312 L 80.144531 53.710938 L 83.148438 53.710938 L 83.148438 49.734375 Z M 86.515625 49.042969 "/>
<path style=" stroke:none;fill-rule:nonzero;fill:rgb(30.588235%,30.588235%,30.588235%);fill-opacity:1;" d="M 97.882812 62.417969 C 97.8125 63.175781 97.933594 63.9375 98.238281 64.648438 C 98.542969 65.363281 99.023438 66.011719 99.644531 66.546875 C 100.269531 67.085938 101.019531 67.5 101.847656 67.761719 C 102.671875 68.027344 103.558594 68.128906 104.433594 68.070312 C 106.210938 68.105469 107.976562 67.816406 109.613281 67.21875 L 110.210938 69.453125 C 108.199219 70.167969 106.039062 70.511719 103.867188 70.460938 C 102.597656 70.535156 101.328125 70.371094 100.140625 69.984375 C 98.953125 69.59375 97.878906 68.988281 96.988281 68.207031 C 96.097656 67.425781 95.410156 66.488281 94.980469 65.457031 C 94.550781 64.429688 94.382812 63.328125 94.488281 62.238281 C 94.488281 57.320312 97.882812 53.433594 103.425781 53.433594 C 109.640625 53.433594 111.195312 58.125 111.195312 61.121094 C 111.226562 61.582031 111.226562 62.042969 111.195312 62.503906 L 97.804688 62.503906 Z M 108.035156 60.183594 C 108.136719 59.585938 108.085938 58.976562 107.890625 58.394531 C 107.695312 57.816406 107.355469 57.28125 106.898438 56.824219 C 106.441406 56.367188 105.878906 55.996094 105.242188 55.746094 C 104.609375 55.492188 103.917969 55.359375 103.21875 55.355469 C 101.796875 55.445312 100.460938 55.988281 99.480469 56.882812 C 98.496094 57.773438 97.9375 58.949219 97.910156 60.183594 Z M 108.035156 60.183594 "/>
<path style=" stroke:none;fill-rule:nonzero;fill:rgb(30.588235%,30.588235%,30.588235%);fill-opacity:1;" d="M 116.460938 58.808594 C 116.460938 56.890625 116.460938 55.234375 116.304688 53.714844 L 119.414062 53.714844 L 119.414062 56.910156 L 119.570312 56.910156 C 119.894531 55.925781 120.570312 55.050781 121.496094 54.410156 C 122.425781 53.769531 123.5625 53.394531 124.75 53.335938 C 125.074219 53.300781 125.40625 53.300781 125.734375 53.335938 L 125.734375 56.128906 C 125.335938 56.089844 124.9375 56.089844 124.542969 56.128906 C 123.367188 56.167969 122.246094 56.574219 121.394531 57.273438 C 120.539062 57.972656 120.011719 58.917969 119.90625 59.925781 C 119.808594 60.386719 119.757812 60.847656 119.75 61.3125 L 119.75 70.003906 L 116.332031 70.003906 L 116.332031 58.832031 Z M 116.460938 58.808594 "/>
<path style=" stroke:none;fill-rule:nonzero;fill:rgb(46.27451%,46.27451%,46.666667%);fill-opacity:1;" d="M 109.765625 7.28125 C 109.828125 8.785156 109.449219 10.277344 108.675781 11.5625 C 107.902344 12.847656 106.765625 13.875 105.414062 14.511719 C 104.058594 15.148438 102.542969 15.363281 101.074219 15.132812 C 99.59375 14.902344 98.21875 14.234375 97.121094 13.21875 C 96.019531 12.199219 95.246094 10.875 94.890625 9.414062 C 94.539062 7.953125 94.625 6.417969 95.136719 5 C 95.644531 3.589844 96.5625 2.359375 97.765625 1.46875 C 98.96875 0.582031 100.410156 0.0703125 101.902344 0.0078125 C 103.898438 -0.078125 105.851562 0.640625 107.324219 2.003906 C 108.800781 3.371094 109.675781 5.265625 109.761719 7.277344 Z M 109.765625 7.28125 "/>
<path style=" stroke:none;fill-rule:nonzero;fill:rgb(95.294118%,46.666667%,14.901961%);fill-opacity:1;" d="M 65.757812 96.789062 C 45.660156 96.789062 28.109375 89.425781 18.992188 78.523438 C 22.386719 88.304688 28.710938 96.777344 37.09375 102.777344 C 45.476562 108.777344 55.496094 111.992188 65.769531 111.992188 C 76.042969 111.992188 86.0625 108.773438 94.445312 102.777344 C 102.824219 96.78125 109.148438 88.304688 112.539062 78.523438 C 103.40625 89.425781 85.855469 96.789062 65.757812 96.789062 Z M 65.757812 96.789062 "/>
<path style=" stroke:none;fill-rule:nonzero;fill:rgb(95.294118%,46.666667%,14.901961%);fill-opacity:1;" d="M 65.75 25.882812 C 85.847656 25.882812 103.402344 33.25 112.515625 44.148438 C 109.121094 34.367188 102.796875 25.894531 94.414062 19.894531 C 86.03125 13.898438 76.015625 10.675781 65.742188 10.675781 C 55.472656 10.675781 45.449219 13.898438 37.070312 19.894531 C 28.6875 25.890625 22.359375 34.367188 18.96875 44.148438 C 28.101562 33.269531 45.652344 25.882812 65.75 25.882812 Z M 65.75 25.882812 "/>
<path style=" stroke:none;fill-rule:nonzero;fill:rgb(61.960784%,61.960784%,61.960784%);fill-opacity:1;" d="M 38.164062 117.984375 C 38.246094 119.878906 37.769531 121.757812 36.792969 123.382812 C 35.8125 125.007812 34.386719 126.304688 32.675781 127.101562 C 30.964844 127.902344 29.089844 128.175781 27.203125 127.886719 C 25.316406 127.59375 23.609375 126.753906 22.222656 125.46875 C 20.839844 124.183594 19.863281 122.515625 19.414062 120.671875 C 18.972656 118.824219 19.082031 116.890625 19.726562 115.105469 C 20.375 113.324219 21.53125 111.777344 23.054688 110.652344 C 24.578125 109.527344 26.390625 108.894531 28.269531 108.820312 C 30.789062 108.714844 33.238281 109.621094 35.097656 111.339844 C 36.953125 113.066406 38.058594 115.453125 38.164062 117.988281 Z M 38.164062 117.984375 "/>
<path style=" stroke:none;fill-rule:nonzero;fill:rgb(38.039216%,38.431373%,38.431373%);fill-opacity:1;" d="M 21.285156 23.417969 C 20.183594 23.46875 19.085938 23.179688 18.144531 22.601562 C 17.199219 22.023438 16.445312 21.171875 15.980469 20.167969 C 15.511719 19.160156 15.359375 18.03125 15.527344 16.929688 C 15.695312 15.828125 16.183594 14.796875 16.933594 13.980469 C 17.679688 13.160156 18.652344 12.582031 19.722656 12.316406 C 20.792969 12.046875 21.925781 12.113281 22.960938 12.5 C 24 12.882812 24.898438 13.566406 25.546875 14.46875 C 27.117188 16.640625 26.953125 19.617188 25.148438 21.597656 C 24.148438 22.699219 22.757812 23.351562 21.28125 23.417969 Z M 21.285156 23.417969 "/>
</g>
</svg>

<svg xmlns="http://www.w3.org/2000/svg" viewBox="0 0 128 128"><path d="M6.648 67.352c0 3.91-.363 5.183-1.296 6.12-1.036.81-2.383 1.255-3.782 1.255l.364 2.234c2.164.023 4.265-.637 5.906-1.856.883-.93 1.539-2 1.93-3.152a7.79 7.79 0 00.347-3.55V53.608H6.648zm0 0M32.531 65.59c0 1.676 0 3.172.153 4.469h-3.082l-.207-2.66c-.645.94-1.567 1.718-2.672 2.25a8.055 8.055 0 01-3.621.788c-3.004 0-6.579-1.406-6.579-7.148v-9.543h3.473v8.938c0 3.105 1.113 5.183 4.246 5.183a5.472 5.472 0 001.883-.308 4.993 4.993 0 001.594-.914 4.197 4.197 0 001.058-1.375 3.638 3.638 0 00.36-1.625V53.633h3.468V65.5zm0 0M39.11 59.063c0-2.079 0-3.778-.157-5.317h3.11l.152 2.793c.695-1.012 1.691-1.84 2.887-2.398A8.493 8.493 0 0149 53.363c4.613 0 8.082 3.332 8.082 8.29 0 5.855-4.168 8.761-8.676 8.761a7.606 7.606 0 01-3.332-.621c-1.027-.45-1.906-1.121-2.547-1.95v8.938H39.11zm3.417 4.355c.008.406.063.812.157 1.207.293.992.96 1.871 1.898 2.5s2.094.965 3.281.965c3.653 0 5.801-2.57 5.801-6.3 0-3.263-2.02-6.056-5.672-6.056-1.445.102-2.797.653-3.804 1.555-1.004.902-1.598 2.086-1.66 3.336zm0 0M63.266 53.73l4.172 9.63a50.836 50.836 0 011.214 3.328c.364-.981.75-2.235 1.22-3.395l3.78-9.563h3.653l-5.18 11.618c-2.59 5.586-4.172 8.468-6.555 10.21-1.199.95-2.664 1.61-4.246 1.922l-.855-2.5a9.76 9.76 0 003.031-1.453c1.262-.89 2.266-2.023 2.926-3.308a2.05 2.05 0 00.285-.715 2.342 2.342 0 00-.234-.781l-7.043-15.04h3.78zm0 0M86.516 49.043v4.691h4.972v2.235h-4.972v8.804c0 2.012.675 3.172 2.59 3.172a8.95 8.95 0 002.019-.203l.156 2.238a9.845 9.845 0 01-3.082.399 5.507 5.507 0 01-2.035-.27 4.921 4.921 0 01-1.719-.98c-1.054-1.219-1.535-2.734-1.347-4.246v-8.938h-2.953v-2.234h3.003v-3.977zm0 0M97.883 62.418c-.07.758.05 1.52.355 2.23a5.218 5.218 0 001.407 1.899c.625.539 1.375.953 2.203 1.215.824.265 1.71.367 2.586.308a14.312 14.312 0 005.18-.851l.597 2.234a17.75 17.75 0 01-6.344 1.008c-1.27.074-2.539-.09-3.726-.477a9.07 9.07 0 01-3.153-1.777c-.89-.781-1.578-1.719-2.008-2.75a6.664 6.664 0 01-.492-3.219c0-4.918 3.395-8.804 8.938-8.804 6.215 0 7.77 4.691 7.77 7.687.03.461.03.922 0 1.383H97.804zm10.152-2.234a3.67 3.67 0 00-.144-1.79 4.075 4.075 0 00-.993-1.57 4.844 4.844 0 00-1.656-1.078 5.534 5.534 0 00-2.023-.39c-1.422.09-2.758.632-3.739 1.527-.984.89-1.543 2.066-1.57 3.3zm0 0M116.46 58.809c0-1.918 0-3.575-.155-5.094h3.11v3.195h.155c.325-.984 1-1.86 1.926-2.5.93-.64 2.067-1.015 3.254-1.074.324-.035.656-.035.984 0v2.793a6.071 6.071 0 00-1.191 0c-1.176.039-2.297.445-3.148 1.144-.856.7-1.383 1.645-1.489 2.653-.097.46-.148.922-.156 1.386v8.692h-3.418V58.832zm0 0" fill="#4e4e4e"/><path d="M109.766 7.281a7.691 7.691 0 01-1.09 4.282 7.583 7.583 0 01-3.262 2.949 7.49 7.49 0 01-4.34.62 7.525 7.525 0 01-3.953-1.913A7.642 7.642 0 0195.137 5a7.606 7.606 0 012.629-3.531 7.509 7.509 0 014.136-1.461 7.51 7.51 0 015.422 1.996 7.627 7.627 0 012.438 5.273zm0 0" fill="#767677"/><path d="M65.758 96.79c-20.098 0-37.649-7.364-46.766-18.267a49.95 49.95 0 0018.102 24.254 49.251 49.251 0 0028.676 9.215 49.279 49.279 0 0028.675-9.215 49.917 49.917 0 0018.094-24.254C103.406 89.426 85.855 96.79 65.758 96.79zm0 0M65.75 25.883c20.098 0 37.652 7.367 46.766 18.265a49.95 49.95 0 00-18.102-24.253 49.27 49.27 0 00-28.672-9.22 49.27 49.27 0 00-28.672 9.22A49.909 49.909 0 0018.97 44.148C28.102 33.27 45.652 25.883 65.75 25.883zm0 0" fill="#f37726"/><path d="M38.164 117.984a9.671 9.671 0 01-1.371 5.399 9.5 9.5 0 01-9.59 4.504 9.405 9.405 0 01-4.98-2.418 9.671 9.671 0 01-2.809-4.797 9.73 9.73 0 01.313-5.567 9.624 9.624 0 013.328-4.453 9.466 9.466 0 0112.043.688 9.63 9.63 0 013.066 6.648zm0 0" fill="#9e9e9e"/><path d="M21.285 23.418a5.53 5.53 0 01-3.14-.816 5.627 5.627 0 01-2.618-5.672 5.612 5.612 0 011.407-2.95 5.593 5.593 0 012.789-1.664 5.46 5.46 0 013.238.184 5.539 5.539 0 012.586 1.969 5.66 5.66 0 01-.399 7.129 5.557 5.557 0 01-3.867 1.82zm0 0" fill="#616262"/></svg>
